X: 1
T:Captain Service's Trip to Whitehead
M:4/4
L:1/8
Q:300
C:Stephen P. McNally
S: 1997
R:March
K:D
|:A>FF<F-F4|E>DE>G F>DD<D|A>FF<F-F4|d>cf>e f>dd<d|
A>FF<F-F4|E>DE>G F>DD>F|D>FF<F D>GG<G|d>cf>e d4:|
|:F>Af>e d4-|d>FG>A B>AF<E|F>Af>e G4-|G>FG>A B<Gc<A|
d>cf>e d4-|d>FG>A B>AF<E|D>FF<F D>GG<G|d>cf>e d4:|
